X:1
T:Llansannan, 87.87 D
T:Llansannan, 87.87 D
T:Welsh Hymn Melody
T:Public Domain Courtesy of the Cyber Hymnal™
C:Welsh Hymn Melody
Z:Public Domain
Z:Courtesy of the Cyber Hymnal™
%%score ( 1 2 ) ( 3 4 )
L:1/8
Q:1/4=110
M:none
K:Eb
V:1 treble 
V:2 treble 
V:3 bass 
V:4 bass 
V:1
|: [CG]2 [Ec]2 [EB]2 [Ec]2 | [FB]2 [EG]2 E2 [DF]2 | [CG]2 [Ec]2 [FB]2 ([EG][DF]) | %3
 [CE]2 [=B,D]2 C4 :| C2 [=B,D]2 [CE]2 [CE]2 | [DF]2 [CE]2 [DF]2 [EG]2 | [Ec]2 [Fd]2 [Ge]2 c2 | %7
 [G=B]2 d2 [Ec]4 | [Ec]2 [Fc]2 [GB]2 [Gc]2 | [FB]2 [EG]2 [CE]2 [DF]2 | %10
 [EG]2 [Ec]2 [FB]2 ([EG][DF]) | [CE]2 [=B,D]2 C4 |] %12
V:2
|: x8 | x4 E2 x2 | x8 | x4 C4 :| C2 x6 | x8 | x6 (EF) | x2 (GF) x4 | x8 | x8 | x8 | x4 C4 |] %12
V:3
|: [C,E,]2 ([C,E,][D,F,]) [E,G,]2 (G,=A,) | [D,B,]2 [E,B,]2 (B,=A,) [B,,B,]2 | %2
 [E,G,]2 [C,G,]2 [D,F,]2 ([E,G,][F,A,]) | G,2 [G,,F,]2 [C,E,]4 :| [E,G,]2 [D,F,]2 [C,G,]2 [C,G,]2 | %5
 [B,,B,]2 [C,G,]2 [B,,B,]2 [E,B,]2 | [A,C]2 ([G,B,][F,A,]) [E,G,]2 [A,C]2 | %7
 [G,D]2 [=B,,G,]2 [C,G,]4 | [A,,C]2 [A,D]2 [E,E]2 [C,E]2 | [D,B,]2 [E,B,]2 [A,C]2 ([G,B,][F,A,]) | %10
 [E,G,]2 [C,G,]2 [D,F,]2 ([E,G,][F,A,]) | G,2 [G,,F,]2 [C,E,]4 |] %12
V:4
|: x6 C,2 | x4 C,2 x2 | x8 | G,2 x6 :| x8 | x8 | x8 | x8 | x8 | x8 | x8 | G,2 x6 |] %12

